proprietary/assets/icons/gebruiksvoorwerpen/plumeau.svg

<svg enable-background="new 0 0 64 64" height="64" viewBox="0 0 64 64" width="64" xmlns="http://www.w3.org/2000/svg"><path d="m0 0h64v64h-64z" fill="none"/><path d="m21.5 57c-1.4 0-2.5 1.1-2.5 2.5s1.1 2.5 2.5 2.5 2.5-1.1 2.5-2.5-1.1-2.5-2.5-2.5zm-11.5-35.5c0-1.9-1.6-3.5-3.5-3.5s-3.5 1.6-3.5 3.5 1.6 3.5 3.5 3.5 3.5-1.6 3.5-3.5zm32.8 9.1c1.7-3 1.5-6.5-.2-9.3l12.5-16.2c1-1.3.3-2.6-1-3.6s-2.7-1.4-3.7-.1l-12.6 16.3c-3.1-1-6.6-.2-9 2.2-.3.3-.6.6-.9.9l14.3 11c.2-.4.4-.8.6-1.2zm-21.8-12.1c1.1-.8 1.3-2.4.5-3.5s-2.4-1.3-3.5-.5-1.3 2.4-.5 3.5 2.4 1.3 3.5.5zm-11.5 34.5c-1.9 0-3.5 1.6-3.5 3.5s1.6 3.5 3.5 3.5 3.5-1.6 3.5-3.5-1.6-3.5-3.5-3.5zm-2.6-20.3c-.5.2-.8.7-.7 1.2.3.9.8 2.5 1.8 4.4 4.3-1.1 8.3-2.7 11.5-4.7 0 0 .3.2-.2.6-3.1 2.7-6.3 4.9-9.8 6.6 1.7 2.7 4.2 5.7 7.9 8.5 2 1.6 4 2.7 5.9 3.7 1-5.6 3.4-10.8 6.9-15.7.4-.5.6-.3.6-.3-2.3 4.9-4.1 11.2-4.5 17.3 4 1.5 7.2 1.8 8.8 1.8.5 0 1-.4 1-1 .4-8.1 1.9-15 5.1-21.6l-14.8-11.4c-5.5 4.9-11.7 8.1-19.5 10.6zm48.6 12.3c-1.9 0-3.5 1.6-3.5 3.5s1.6 3.5 3.5 3.5 3.5-1.6 3.5-3.5-1.6-3.5-3.5-3.5zm1.6-17c-2.2-.1-4.1 1.7-4.1 3.9-.1 2.2 1.7 4.1 3.9 4.1s4.1-1.7 4.1-3.9c.1-2.2-1.7-4-3.9-4.1zm-12.6 26c-1.4 0-2.5 1.1-2.5 2.5s1.1 2.5 2.5 2.5 2.5-1.1 2.5-2.5-1.1-2.5-2.5-2.5zm1-17c-1.4 0-2.5 1.1-2.5 2.5s1.1 2.5 2.5 2.5 2.5-1.1 2.5-2.5-1.1-2.5-2.5-2.5z"/></svg>

<?xml version="1.0" encoding="utf-8"?>
<!-- Generator: Adobe Illustrator 22.1.0, SVG Export Plug-In . SVG Version: 6.00 Build 0)  -->
<!DOCTYPE svg PUBLIC "-//W3C//DTD SVG 1.1//EN" "http://www.w3.org/Graphics/SVG/1.1/DTD/svg11.dtd">
<svg version="1.1" xmlns="http://www.w3.org/2000/svg" xmlns:xlink="http://www.w3.org/1999/xlink" x="0px" y="0px" width="64px"
	 height="64px" viewBox="0 0 64 64" style="enable-background:new 0 0 64 64;" xml:space="preserve">
<style type="text/css">
	.st0{fill:none;}
</style>
<g id="Box">
	<rect class="st0" width="64" height="64"/>
</g>
<g id="Icon">
	<g>
		<g>
			<path d="M21.5,57c-1.4,0-2.5,1.1-2.5,2.5c0,1.4,1.1,2.5,2.5,2.5c1.4,0,2.5-1.1,2.5-2.5C24,58.1,22.9,57,21.5,57z M10,21.5
				c0-1.9-1.6-3.5-3.5-3.5S3,19.6,3,21.5S4.6,25,6.5,25S10,23.4,10,21.5z M42.8,30.6c1.7-3,1.5-6.5-0.2-9.3L55.1,5.1
				c1-1.3,0.3-2.6-1-3.6c-1.3-1-2.7-1.4-3.7-0.1L37.8,17.7c-3.1-1-6.6-0.2-9,2.2c-0.3,0.3-0.6,0.6-0.9,0.9l14.3,11
				C42.4,31.4,42.6,31,42.8,30.6z M21,18.5c1.1-0.8,1.3-2.4,0.5-3.5c-0.8-1.1-2.4-1.3-3.5-0.5c-1.1,0.8-1.3,2.4-0.5,3.5
				C18.3,19.1,19.9,19.3,21,18.5z M9.5,53C7.6,53,6,54.6,6,56.5S7.6,60,9.5,60s3.5-1.6,3.5-3.5S11.4,53,9.5,53z M6.9,32.7
				c-0.5,0.2-0.8,0.7-0.7,1.2c0.3,0.9,0.8,2.5,1.8,4.4c4.3-1.1,8.3-2.7,11.5-4.7c0,0,0.3,0.2-0.2,0.6c-3.1,2.7-6.3,4.9-9.8,6.6
				c1.7,2.7,4.2,5.7,7.9,8.5c2,1.6,4,2.7,5.9,3.7c1-5.6,3.4-10.8,6.9-15.7c0.4-0.5,0.6-0.3,0.6-0.3c-2.3,4.9-4.1,11.2-4.5,17.3
				c4,1.5,7.2,1.8,8.8,1.8c0.5,0,1-0.4,1-1c0.4-8.1,1.9-15,5.1-21.6L26.4,22.1C20.9,27,14.7,30.2,6.9,32.7z M55.5,45
				c-1.9,0-3.5,1.6-3.5,3.5s1.6,3.5,3.5,3.5s3.5-1.6,3.5-3.5S57.4,45,55.5,45z M57.1,28c-2.2-0.1-4.1,1.7-4.1,3.9
				c-0.1,2.2,1.7,4.1,3.9,4.1s4.1-1.7,4.1-3.9C61.1,29.9,59.3,28.1,57.1,28z M44.5,54c-1.4,0-2.5,1.1-2.5,2.5c0,1.4,1.1,2.5,2.5,2.5
				c1.4,0,2.5-1.1,2.5-2.5C47,55.1,45.9,54,44.5,54z M45.5,37c-1.4,0-2.5,1.1-2.5,2.5c0,1.4,1.1,2.5,2.5,2.5c1.4,0,2.5-1.1,2.5-2.5
				C48,38.1,46.9,37,45.5,37z"/>
		</g>
	</g>
</g>
</svg>
